X:5295
T:Pull the Knife and Stick it Again
O:england
R:Jig
M:6/8
L:1/8
K:Em
D|E2E GFE|DB,D DB,D|E2E GFE|ABG AFD|
E2E GFE|DB,D DEF|G2E FED|DB,D E3:|
|:edB BAF|E2D DEF|edB BAF|AFA d2f|
edB BAF|E2D DEF|G2E FED|DED E3:|


